X:570
T: DIE ROSEN UND DIE NELKEN
N: F1133
O: Europa, Mitteleuropa, Deutschland
R: Liebes - Lied, Klage
M: 4/4
L: 1/8
K: G
d2 | d2c2_B2A2 | _B4G2
B2 | A2c2_B2A2 | _B4z2
G2 | G2G2B2d2 | d4c2
A2 | G2_B2B2A2 | G4z2
_B2 | _B2A2G2A2 | c4_B2
d2 | d2c2_B2c2 | d4z2
d2 | =f2_B2d2f2 | =f4_e2
G2 | G2_B2B3A | G4z2
